X:1779
T:Eileen Ogh
C:Hotfiddle
O:England
M:4/4
L:1/8
Q:1/4=161
K:G
V:1
B,6  |:ED EF GF GA |Bc BA Gz E2 |D3 EF2 FG |
AB AG Fz D2 |ED EF GF GA |BA GB dz dc |B2 E2 GF ED |
|1 Ez Ez E2 B,2 :|2 Ez Ez E4 || |:[e4c4]e3 e|d BG AB2 Bc |
BA FG A2 AB |AG FG E4 |[e2c2]ef g2 ge |dB GA B2 GA |
Bz Bc BA FG |Ez Ez E4 :|


